!!!!SEGMENT: pl-wn--sd-xvi-qu-273--027_gomolka-mikolaj--pan-ogniem-swojej-swiatlosci.krn
!!!cenid: 15xx:232
!!!COM: Gomółka, Mikołaj
!!!COM-rismid: pe30013343
!!!CDT: ~1535->1591/04/30
!!!CNT: Polish
!!!GTL: Melodiae na psalterz polski
!!!OTL: XXVII. Pan ogniem swojej światłości
!!!PDT: 1580
!!!AGN: Sacred
!!!SMS-siglum: PL-Wn
!!!SMS-shelfmark: SD XVI.Qu.273
!!!SMS-shelfwork: 027 G
!!!NIFC-rismid:
!!!ONB-nifc: Melodiae na psalterz polski
**kern	**text	**kern	**text	**kern	**text	**kern	**text
*part4	*part4	*part3	*part3	*part2	*part2	*part1	*part1
*staff4	*staff4	*staff3	*staff3	*staff2	*staff2	*staff1	*staff1
*clefF3	*	*clefC3	*	*clefC3	*	*clefC1	*
*k[]	*	*k[]	*	*k[]	*	*k[]	*
*C:	*	*C:	*	*C:	*	*C:	*
*M4/2	*	*M4/2	*	*M4/2	*	*M4/2	*
*met(C|)	*	*met(C|)	*	*met(C|)	*	*met(C|)	*
*>A	*	*	*	*	*	*	*
=-	=-	=-	=-	=-	=-	=-	=-
1G	Pan	4G	Pan	4B/	Pan	2.g/	Pan
.	.	4A	.	4c/	.	.	.
.	.	4B	.	4d\	.	.	.
.	.	4c	.	4c	.	4a	.
2G	og-	4d	og-	4B	og-	4b	og-
.	.	4e	.	8AL	.	4cc	.
.	.	.	.	8GJ	.	.	.
2D	-niem	2f	-niem	2A	-niem	2dd	-niem
=3-	=3-	=3-	=3-	=3-	=3-	=3-	=3-
2.E	ʃwo-	2.g	ʃwo-	2G	swo-	2.b	swo-
.	.	.	.	1g	-iéy	.	.
4F/	.	4f	.	.	.	4a	.
2G	-iéy	2e	-iéy	.	.	2b	-iéy
2A	świát-	4d	świát-	2f	świát-	1cc	świát-
.	.	4c/	.	.	.	.	.
=4-	=4-	=4-	=4-	=4-	=4-	=4-	=4-
1G	-ło(ś-	1d	-łoś-	2.g	-łoś-	.	.
.	.	.	.	.	.	2b	-łoś-
.	.	.	.	4f	.	.	.
2C	-ći)	2c/	-ći	2e	-ći	2cc	-ći
2.C	Roś-	2c/	Roś-	2e	Roś-	2g/	Roś-
=5-	=5-	=5-	=5-	=5-	=5-	=5-	=5-
.	.	1e	-wie-	1g	-wie-	1cc	-wie-
4D	.	.	.	.	.	.	.
4E	-wie-	.	.	.	.	.	.
4F/	.	.	.	.	.	.	.
2G	-ca	2d	-ca	2g	-ca	2b	-ca
4F/	mo-	2d	mo-	2g	mo-	4a	mo-
4E	.	.	.	.	.	4g	.
=6-	=6-	=6-	=6-	=6-	=6-	=6-	=6-
2F/	-ie	4c/	-ie	2f	-(ie)	4a	-ie
.	.	4B	.	.	.	4g	.
2G	ciem-	4B	ciem-	2.d	ciem-	1g	ciem-
.	.	8AL	.	.	.	.	.
.	.	8GJ	.	.	.	.	.
1D	-noś-	1A	-noś-	.	.	.	.
.	.	.	.	4c/	.	.	.
.	.	.	.	2A	-noś-	2f	-noś-
!!LO:PB:g=original
=7-	=7-	=7-	=7-	=7-	=7-	=7-	=7-
2G	-ći:	2G	-ći:	2B	-ći:	2g/	-ći:
2E	Pan	2B	Pan	2G	Pan	2g/	Pan
2A	ʃtró-	2c/	ʃtró-	4A	ʃtró-	2e	ʃtró-
.	.	.	.	4B	.	.	.
!	!LO:"z z."	!	!LO:"z z."	!	!LO:"z z."	!	!LO:"z z."
2A	-(ӡem)	2c/	-ӡem	1c	-ӡem	2f	-ӡem
=8-	=8-	=8-	=8-	=8-	=8-	=8-	=8-
1G	me-	1d	me-	.	.	1g	me-
.	.	.	.	2B	me-	.	.
2F/	-go	4A	-go	2c	-go	2a	-go
.	.	4B	.	.	.	.	.
!	!LO:"z z."	!	!LO:"z z."	!	!LO:"z z."	!	!LO:"z z."
2E	ӡy-	1c	ӡy-	2G	ӡy-	2g/	ӡy-
=9-	=9-	=9-	=9-	=9-	=9-	=9-	=9-
1D	-wo-	.	.	2A	-wo-	1f	-wo-
.	.	2B	-wo-	2F	.	.	.
2C	-tá	2c/	-tá	2G	-tá	2e	-tá
2C	-ӡťąd	2c/	ӡťąd	2.e	-ӡťąd	2g/	-ӡťąd
=10-	=10-	=10-	=10-	=10-	=10-	=10-	=10-
2C	ʃye	2G	ʃye	.	.	2cc	ʃye
.	.	.	.	4d	ʃye	.	.
2F/	ia	2A	ia	2c/	ia	2a	ia
2D	mam	2A	m(am)	2f	mam	2.dd	mam
2.G	bać	2B	bać	2d	bać	.	.
.	.	.	.	.	.	4cc	.
=11-	=11-	=11-	=11-	=11-	=11-	=11-	=11-
.	.	2B	ťło-	2d	ťło-	4b	bać
4F	.	.	.	.	.	4a	.
4E	ťło-	2c/	.	2e	.	1g	-ťło-
8DL	.	.	.	.	.	.	.
8CJ	.	.	.	.	.	.	.
1D	-po-	4B	-po-	2.d	-po-	.	.
.	.	8AL	.	.	.	.	.
.	.	8GJ	.	.	.	.	.
.	.	2A	.	.	.	2f	-po-
.	.	.	.	4c/	.	.	.
=12-	=12-	=12-	=12-	=12-	=12-	=12-	=12-
!!LO:N:vis=00
0G/	-á?	0G/	-tá.	0B/	-tá?	0g	-tá.
=-	=-	=-	=-	=-	=-	=-	=-
*-	*-	*-	*-	*-	*-	*-	*-
!!!RDF**kern: l = terminal long
!!!system-decoration: s1,s2,s3,s4
!!!ENC:Anna Matuszewska
!!!END:2020-06-02
!!!URL-scan: https://polona.pl/item/melodiae-na-psalterz-polski,Nzk3MTM4ODQ/75 Scan on Polona
!!!IIIF: https://polona.pl/iiif/item/Nzk3MTM4ODQ/manifest.json
